settings-icons/settings.svg

<svg xmlns="http://www.w3.org/2000/svg" xml:space="preserve" viewBox="0 0 24 24"><path d="m19.738,10l2.262,0l0,4l-2.261,0c-0.241,0.931 -0.639,1.798 -1.174,2.564l1.435,1.436l-2,2l-1.435,-1.436c-0.768,0.535 -1.633,0.934 -2.565,1.174l0,2.262l-4,0l0,-2.262c-0.931,-0.24 -1.797,-0.639 -2.564,-1.174l-1.436,1.436l-2,-2l1.436,-1.436c-0.535,-0.765 -0.934,-1.632 -1.174,-2.564l-2.262,0l0,-4l2.262,0c0.24,-0.932 0.638,-1.798 1.174,-2.564l-1.436,-1.436l2,-2l1.436,1.436c0.766,-0.536 1.632,-0.934 2.564,-1.174l0,-2.262l4,0l0,2.261c0.932,0.241 1.797,0.639 2.565,1.174l1.435,-1.436l2,2l-1.436,1.437c0.535,0.766 0.934,1.633 1.174,2.564zm-7.738,6c2.2091,0 4,-1.7909 4,-4c0,-2.20914 -1.7909,-4 -4,-4c-2.20914,0 -4,1.79086 -4,4c0,2.2091 1.79086,4 4,4z"/></svg>

<svg viewBox="0 0 24 24"><path d="M19.738 10H22V14H19.739C19.498 14.931 19.1 15.798 18.565 16.564L20 18L18 20L16.565 18.564C15.797 19.099 14.932 19.498 14 19.738V22H10V19.738C9.069 19.498 8.203 19.099 7.436 18.564L6 20L4 18L5.436 16.564C4.901 15.799 4.502 14.932 4.262 14H2V10H4.262C4.502 9.068 4.9 8.202 5.436 7.436L4 6L6 4L7.436 5.436C8.202 4.9 9.068 4.502 10 4.262V2H14V4.261C14.932 4.502 15.797 4.9 16.565 5.435L18 3.999L20 5.999L18.564 7.436C19.099 8.202 19.498 9.069 19.738 10ZM12 16C14.2091 16 16 14.2091 16 12C16 9.79086 14.2091 8 12 8C9.79086 8 8 9.79086 8 12C8 14.2091 9.79086 16 12 16Z"></path></svg>
